mobile/24/svg/qr-code-24.svg

<svg width="24" height="24" viewBox="0 0 24 24" fill="none" xmlns="http://www.w3.org/2000/svg">
<path d="M5.5 3C4.11975 3 3 4.11975 3 5.5V9H4.75V5.5C4.75 5.08625 5.08625 4.75 5.5 4.75H9V3H5.5Z" fill="black"/>
<path d="M11 10.25C11 10.664 10.664 11 10.25 11H7.75C7.336 11 7 10.664 7 10.25V7.75C7 7.336 7.336 7 7.75 7H10.25C10.664 7 11 7.336 11 7.75V10.25Z" fill="black"/>
<path d="M17 15H15V13H17V11H15V9H17V7H15V9H13V11H15V13H13V15H11V13H9V15H7V17H9V15H11V17H13V15H15V17H17V15Z" fill="black"/>
<path d="M3 18.5V15H4.75V18.5C4.75 18.9138 5.08625 19.25 5.5 19.25H9V21H5.5C4.11975 21 3 19.8802 3 18.5Z" fill="black"/>
<path d="M15 3H18.5C19.8802 3 21 4.11975 21 5.5V9H19.25V5.5C19.25 5.08625 18.9138 4.75 18.5 4.75H15V3Z" fill="black"/>
<path d="M21 18.5V15H19.25V18.5C19.25 18.9138 18.9138 19.25 18.5 19.25H15V21H18.5C19.8802 21 21 19.8802 21 18.5Z" fill="black"/>
</svg>

<svg width="24" height="24" fill="none" xmlns="http://www.w3.org/2000/svg"><path d="M5.5 3A2.5 2.5 0 0 0 3 5.5V9h1.75V5.5a.75.75 0 0 1 .75-.75H9V3H5.5zM11 10.25a.75.75 0 0 1-.75.75h-2.5a.75.75 0 0 1-.75-.75v-2.5A.75.75 0 0 1 7.75 7h2.5a.75.75 0 0 1 .75.75v2.5zM17 15h-2v-2h2v-2h-2V9h2V7h-2v2h-2v2h2v2h-2v2h-2v-2H9v2H7v2h2v-2h2v2h2v-2h2v2h2v-2zM3 18.5V15h1.75v3.5c0 .414.336.75.75.75H9V21H5.5A2.5 2.5 0 0 1 3 18.5zM15 3h3.5A2.5 2.5 0 0 1 21 5.5V9h-1.75V5.5a.75.75 0 0 0-.75-.75H15V3zM21 18.5V15h-1.75v3.5a.75.75 0 0 1-.75.75H15V21h3.5a2.5 2.5 0 0 0 2.5-2.5z" fill="#000"/></svg>
